X:551
T:C\'uil Aodha Slide, The
O:ireland
R:slide
Z:id:hn-slide-64
M:6/8
L:1/8
K:D
Bcd Bcd|c2B A2c|Bcd e2f|g3 f2g|agf gfe|f2d A2A|Bcd e2c|1 d3 c3:|2 d3 f2g||
|:agf gfe|f2d A3|Bcd e2f|g3 f2g|agf gfe|f2d A2A|Bcd e2c|1 d3 f2g:|2 d3 c3||
This file contains 8 strathspeys (#1 - #8).
You can find more abc tune files at http://home1.swipnet.se/~w-11382/abc.htm
I've transcribed them as I have learnt them, which does not necessarily mean
that I play them that way nowadays. Many of the tunes include variations and
different versions. If there is a source (S:) or discography (D:) included the
version transcribed might still not be exactly as that source played the tune,
since I might have changed the tune around a bit when I learnt it.
The tunes were learnt from sessions, from friends or from recordings.
When I've included discography, it's often just a reference to what recordings
the tune appears on.
Last updated 19 September 2000.
(c) Copyright 1997-2000 Henrik Norbeck. This file:
- May be distributed freely (with restrictions below).
- May not be used for commercial purposes (such as printing a tune book to sell).
- This file (or parts of it) may not be made available on a web page for
download without permission from me.
- This copyright notice must be kept, except when e-mailing individual tunes.
- May be printed on paper for personal use.
- Questions? E-mail: henrik.norbeck@mailbox.swipnet.se






